public/illustrations/planet_stars_1.svg

<svg width="391" height="438" viewBox="0 0 391 438" fill="none" xmlns="http://www.w3.org/2000/svg">
<g clip-path="url(#clip0_13442_7987)">
<path d="M154.016 173C156.153 173.345 160.424 173.991 164.679 174.752C166.637 175.103 168.494 175.813 170.567 175.663C171.653 175.583 172.97 176.189 173.921 176.885C181.461 182.487 188.495 188.629 192.38 197.93C195.454 205.384 196.881 213.044 195.679 221.089C195.143 224.698 194.037 228.027 192.4 231.126C184.6 245.939 172.905 254.179 157.28 256.051C150.236 256.862 143.172 257.002 136.093 254.274C123.547 249.528 114.115 241.263 109.213 228.207C108.467 226.24 108.002 224.162 107.601 222.125C107.026 219.211 106.475 216.278 106.205 213.354C105.999 211.106 105.459 208.648 107.767 207.047C108.342 206.646 108.382 205.495 108.628 204.674C114 186.471 132.203 173.075 154.016 173ZM143.923 177.621C143.157 177.726 142.661 177.706 142.236 177.866C138.816 179.163 135.392 180.439 132.018 181.801C128.268 183.308 126.115 186.501 124.027 189.665C123.402 190.611 123.051 191.798 122.786 192.929C122.07 196.013 122.976 198.401 125.72 200.263C127.307 201.345 129.069 202.186 130.811 202.992C134.756 204.839 137.725 207.712 139.552 211.727C140.398 213.595 141.084 215.557 141.61 217.529C143.412 224.318 145.46 225.844 151.993 225.344C155.473 225.074 158.982 224.838 162.492 224.973C170.527 225.284 177.025 231.441 178.597 239.987C178.797 241.093 178.837 242.199 177.656 242.55C176.499 242.89 175.849 242.044 175.413 240.958C174.622 238.99 173.871 237.008 173.02 235.071C171.939 232.628 170.161 231.086 167.833 229.969C164.384 228.322 160.92 228.448 157.425 228.583C154.611 228.693 151.813 229.013 148.994 228.968C144.534 228.898 141.024 226.205 139.337 221.789C138.966 220.833 138.691 219.832 138.476 218.831C137.119 212.483 133.905 207.802 127.697 205.274C122.505 203.187 119.016 199.577 119.126 193.585C119.126 193.53 119.006 193.465 118.756 193.23C118.28 193.765 117.749 194.256 117.334 194.837C113.654 200.008 111.456 205.79 110.695 212.173C110.145 216.803 111.031 218.505 115.291 220.938C116.523 221.644 117.824 222.23 119.126 222.756C120.898 223.472 122.701 224.102 124.503 224.728C127.967 225.94 130.721 228.087 132.698 231.346C133.605 232.853 134.606 234.31 135.567 235.792C137.159 238.255 139.297 239.506 142.06 239.726C144.774 239.942 147.497 240.337 150.211 240.763C153.866 241.343 156.138 244.057 158.081 247.165C158.642 248.067 158.597 249.033 157.781 249.618C156.944 250.214 156.133 249.809 155.468 248.983C155.007 248.412 154.571 247.821 154.126 247.236C152.799 245.483 151.197 244.342 149.089 244.132C146.766 243.896 144.438 243.476 142.121 243.291C138.231 242.98 135.147 241.158 132.869 237.664C131.787 236.017 130.696 234.375 129.65 232.708C128.443 230.8 126.871 229.309 124.848 228.518C120.278 226.746 115.597 225.314 111.151 222.1C111.286 223.046 111.316 223.527 111.431 223.992C114.185 235.121 121.239 242.885 131.101 248.377C138.551 252.607 146.266 253.403 154.121 252.737C168.034 251.516 179.433 245.619 187.178 232.933C191.399 226.005 191.399 227.622 187.564 219.301C187.519 219.206 187.469 219.111 187.423 219.016C186.612 217.264 185.326 215.952 183.594 215.667C181.18 215.272 178.727 215.166 176.294 215.111C174.237 215.061 172.189 215.337 170.131 215.312C166.737 215.272 164.179 213.424 162.712 210.255C161.856 208.418 161.41 206.291 161.21 204.273C160.434 196.368 157.746 193.946 152.634 192.614C149.885 191.903 147.377 190.491 145.37 188.299C143.182 185.926 142.296 183.247 143.267 180.134C143.487 179.413 143.652 178.667 143.923 177.621ZM147.683 176.94C147.357 178.086 147.172 178.967 146.867 179.803C145.58 183.273 146.131 185.37 149.36 187.317C151.247 188.464 153.38 189.25 155.478 189.906C159.127 191.052 161.701 193.4 163.027 197.039C163.798 199.172 164.339 201.45 164.579 203.697C165.295 210.346 166.917 211.952 173.115 211.657C175.663 211.532 178.212 211.152 180.76 211.302C185.161 211.567 188.835 213.424 190.848 218.125C191.098 218.711 191.564 219.191 192.24 220.168C192.415 218.776 192.575 217.97 192.615 217.154C192.89 211.086 191.639 205.314 189.356 199.708C185.766 190.992 179.148 185.32 172.169 180.014C171.453 179.473 170.557 179.067 169.691 178.897C166.256 178.221 162.812 177.611 159.353 177.08C155.478 176.499 151.588 175.949 147.683 176.94Z" fill="#F8D948"/>
<path d="M69.5764 327.442C74.6318 327.447 78.0473 324.557 80.6652 320.48C82.8515 317.072 83.71 313.209 84.221 309.259C85.0601 302.787 84.7631 296.295 84.4958 289.8C84.2817 284.549 84.2533 279.291 84.1552 274.041C84.1478 273.628 84.1353 273.171 84.3068 272.824C84.4947 272.444 84.907 271.913 85.2051 271.919C85.6353 271.935 86.1847 272.284 86.4346 272.659C86.709 273.07 86.7675 273.663 86.803 274.188C86.9322 276.134 87.1117 278.078 87.0944 280.021C87.0122 288.244 87.2904 296.447 88.7126 304.562C89.496 309.027 91.0527 313.206 93.8163 316.883C95.8886 319.637 98.5249 321.428 101.896 322.253C104.738 322.947 107.596 323.166 110.503 323.032C111.15 323.002 111.822 322.93 112.442 323.064C112.82 323.147 113.268 323.533 113.41 323.89C113.503 324.126 113.183 324.763 112.921 324.853C112.287 325.073 112.183 325.397 112.164 326.019C112.144 326.843 111.643 327.138 110.738 327.157C107.636 327.218 104.856 328.195 102.571 330.399C99.955 332.924 98.0559 335.895 97.3775 339.486C96.5814 343.716 95.833 347.965 95.324 352.237C94.7106 357.393 94.3727 362.577 93.9126 367.75C93.8857 368.041 93.9376 368.402 93.7848 368.607C93.5678 368.909 93.2067 369.273 92.8911 369.289C92.5755 369.306 92.1064 368.997 91.9414 368.704C91.7252 368.316 91.7207 367.797 91.6567 367.331C90.9216 362.064 90.2905 356.78 89.4273 351.538C88.9016 348.343 88.1467 345.17 87.2763 342.045C85.734 336.509 81.9508 333.298 76.3727 332.129C73.4231 331.507 70.4758 330.906 67.4257 331.157C66.7818 331.212 66.1127 331.178 65.4874 331.044C65.1514 330.972 64.7403 330.641 64.6134 330.329C64.3875 329.77 65.8169 327.836 66.4468 327.748C66.9728 327.677 67.5057 327.666 68.0341 327.615C68.5226 327.569 68.9895 327.509 69.5764 327.442ZM72.9634 329.101C72.9749 329.2 72.9859 329.295 72.9974 329.394C74.27 329.635 75.5465 329.866 76.816 330.122C82.7868 331.331 86.9609 334.654 89.001 340.485C90.41 344.52 91.1905 348.698 91.8085 352.91C91.9745 354.04 92.0763 355.182 92.208 356.321C92.3589 356.319 92.5148 356.316 92.6657 356.314C92.7662 355.526 92.8517 354.74 92.9726 353.955C93.735 348.999 94.2279 343.978 95.3429 339.107C96.8847 332.392 100.68 327.383 107.428 325.378C105.404 324.997 103.195 324.638 101.017 324.154C97.5982 323.395 94.8764 321.518 92.6744 318.819C90.4374 316.079 88.8955 312.987 87.8274 309.633C87.5341 308.71 87.2452 307.781 86.9564 306.851C86.5589 307.598 86.4615 308.325 86.374 309.05C85.8177 313.479 84.8539 317.783 82.435 321.621C80.6036 324.524 78.2395 326.873 75.0752 328.318C74.3905 328.629 73.6644 328.844 72.9634 329.101Z" fill="#F8D948"/>
<path d="M275.534 19.5763C273.661 19.1508 271.804 18.6602 269.956 18.1445C268.359 17.6439 266.867 16.7779 265.761 15.5314C264.635 14.3149 263.914 12.783 263.558 11.2311C263.213 9.63416 263.318 8.12233 263.733 6.51537C264.084 4.85334 264.409 3.18629 264.7 1.51426C264.805 0.908516 264.454 0.307794 263.854 0.117562C263.198 -0.0926942 262.497 0.267738 262.292 0.923538L262.272 0.993631C261.621 3.0211 261 5.26383 260.374 7.13612C259.723 8.91329 258.492 10.4351 256.935 11.5215C255.358 12.5878 253.435 13.1334 251.513 13.0483L245.11 12.3525L245.045 12.3475C244.569 12.2974 244.113 12.5978 243.993 13.0784C243.863 13.599 244.178 14.1296 244.699 14.2648C246.787 14.7955 249.005 15.226 251.007 15.7666C252.945 16.3774 254.737 17.6389 255.883 19.3861C257.06 21.1132 257.626 23.2558 257.42 25.3333C257.135 27.4209 256.619 29.5985 256.209 31.7211C256.139 32.0816 256.339 32.442 256.694 32.5671C257.085 32.7023 257.505 32.4971 257.641 32.1066L257.666 32.0315L259.778 25.929C260.529 24.1319 261.771 22.5749 263.368 21.4636C264.975 20.3773 266.903 19.7115 268.935 19.6764C271.008 19.7465 273.256 19.9718 275.413 20.112L275.448 20.1169C275.584 20.127 275.704 20.0369 275.734 19.9017C275.774 19.7565 275.684 19.6063 275.534 19.5763Z" fill="#F8D948"/>
<path d="M204.577 346.342C204.562 344.394 205.092 342.477 206.129 340.825C207.18 339.198 208.692 337.826 210.544 336.995C212.482 336.244 214.634 335.574 216.672 334.858L216.707 334.848C216.832 334.803 216.912 334.672 216.887 334.537C216.862 334.387 216.717 334.287 216.567 334.317C214.68 334.662 212.777 334.938 210.875 335.188C209.213 335.353 207.495 335.143 205.993 334.432C204.482 333.756 203.215 332.63 202.284 331.343C201.337 330.012 200.842 328.58 200.597 326.938C200.266 325.271 199.911 323.609 199.525 321.957C199.385 321.361 198.824 320.946 198.199 321.006C197.513 321.071 197.012 321.677 197.077 322.362L197.082 322.438C197.282 324.56 197.588 326.863 197.748 328.83C197.848 330.718 197.312 332.605 196.306 334.217C195.275 335.814 193.718 337.07 191.915 337.746L185.753 339.623L185.693 339.644C185.232 339.784 184.937 340.239 185.012 340.73C185.097 341.26 185.592 341.626 186.128 341.541C188.256 341.205 190.464 340.735 192.521 340.444C194.544 340.244 196.687 340.705 198.429 341.861C200.191 342.983 201.548 344.735 202.179 346.727" fill="#F8D948"/>
<path d="M236.229 58.2787C237.576 58.3338 238.382 57.8432 238.792 56.887C239.273 55.7656 239.168 54.8345 238.241 54.0585C237.335 53.2976 236.339 52.6268 235.323 52.0311C234.412 51.5004 233 51.9009 232.224 52.762C231.498 53.573 231.383 54.5441 232.013 55.5203C233.07 57.1323 234.652 57.9333 236.229 58.2787Z" fill="#F8D948"/>
<path d="M279.719 417.138C280.716 417.183 281.522 416.923 282.052 416.357C283.659 414.63 283.014 412.733 281.432 411.771C280.03 410.92 277.682 411.661 276.751 412.998C276.175 413.824 276.155 414.595 276.776 415.396C277.567 416.432 278.648 417.008 279.719 417.138Z" fill="#F8D948"/>
<path d="M128.521 408.037C127.375 406.831 126.148 406.666 124.816 407.397C123.64 408.048 123.019 409.474 123.379 410.716C123.945 412.663 126.183 413.87 128.1 413.264C129.017 412.973 129.547 412.328 129.602 411.362C129.683 410.045 129.382 408.838 128.521 408.037Z" fill="#F8D948"/>
<path d="M344.757 188.149C345.563 187.067 345.613 186.126 345.062 185.245C344.411 184.214 343.58 183.773 342.419 184.099C341.282 184.414 340.161 184.855 339.095 185.36C338.143 185.811 337.673 187.197 337.948 188.329C338.203 189.385 338.939 190.031 340.106 190.061C342.028 190.106 343.58 189.255 344.757 188.149Z" fill="#F8D948"/>
</g>
<defs>
<clipPath id="clip0_13442_7987">
<rect width="391" height="438" fill="white"/>
</clipPath>
</defs>
</svg>

<svg width="391" height="438" fill="none" xmlns="http://www.w3.org/2000/svg"><g clip-path="url(#a)" fill="#F8D948"><path d="M154.016 173c2.137.345 6.408.991 10.663 1.752 1.958.351 3.815 1.061 5.888.911 1.086-.08 2.403.526 3.354 1.222 7.54 5.602 14.574 11.744 18.459 21.045 3.074 7.454 4.501 15.114 3.299 23.159a31.066 31.066 0 0 1-3.279 10.037c-7.8 14.813-19.495 23.053-35.12 24.925-7.044.811-14.108.951-21.187-1.777-12.546-4.746-21.978-13.011-26.88-26.067-.746-1.967-1.211-4.045-1.612-6.082-.575-2.914-1.126-5.847-1.396-8.771-.206-2.248-.746-4.706 1.562-6.307.575-.401.615-1.552.861-2.373C114 186.471 132.203 173.075 154.016 173Zm-10.093 4.621c-.766.105-1.262.085-1.687.245-3.42 1.297-6.844 2.573-10.218 3.935-3.75 1.507-5.903 4.7-7.991 7.864-.625.946-.976 2.133-1.241 3.264-.716 3.084.19 5.472 2.934 7.334 1.587 1.082 3.349 1.923 5.091 2.729 3.945 1.847 6.914 4.72 8.741 8.735a37.621 37.621 0 0 1 2.058 5.802c1.802 6.789 3.85 8.315 10.383 7.815 3.48-.27 6.989-.506 10.499-.371 8.035.311 14.533 6.468 16.105 15.014.2 1.106.24 2.212-.941 2.563-1.157.34-1.807-.506-2.243-1.592-.791-1.968-1.542-3.95-2.393-5.887-1.081-2.443-2.859-3.985-5.187-5.102-3.449-1.647-6.913-1.521-10.408-1.386-2.814.11-5.612.43-8.431.385-4.46-.07-7.97-2.763-9.657-7.179a19.516 19.516 0 0 1-.861-2.958c-1.357-6.348-4.571-11.029-10.779-13.557-5.192-2.087-8.681-5.697-8.571-11.689 0-.055-.12-.12-.37-.355-.476.535-1.007 1.026-1.422 1.607-3.68 5.171-5.878 10.953-6.639 17.336-.55 4.63.336 6.332 4.596 8.765 1.232.706 2.533 1.292 3.835 1.818 1.772.716 3.575 1.346 5.377 1.972 3.464 1.212 6.218 3.359 8.195 6.618.907 1.507 1.908 2.964 2.869 4.446 1.592 2.463 3.73 3.714 6.493 3.934 2.714.216 5.437.611 8.151 1.037 3.655.58 5.927 3.294 7.87 6.402.561.902.516 1.868-.3 2.453-.837.596-1.648.191-2.313-.635-.461-.571-.897-1.162-1.342-1.747-1.327-1.753-2.929-2.894-5.037-3.104-2.323-.236-4.651-.656-6.968-.841-3.89-.311-6.974-2.133-9.252-5.627-1.082-1.647-2.173-3.289-3.219-4.956-1.207-1.908-2.779-3.399-4.802-4.19-4.57-1.772-9.251-3.204-13.697-6.418.135.946.165 1.427.28 1.892 2.754 11.129 9.808 18.893 19.67 24.385 7.45 4.23 15.165 5.026 23.02 4.36 13.913-1.221 25.312-7.118 33.057-19.804 4.221-6.928 4.221-5.311.386-13.632-.045-.095-.095-.19-.141-.285-.811-1.752-2.097-3.064-3.829-3.349-2.414-.395-4.867-.501-7.3-.556-2.057-.05-4.105.226-6.163.201-3.394-.04-5.952-1.888-7.419-5.057-.856-1.837-1.302-3.964-1.502-5.982-.776-7.905-3.464-10.327-8.576-11.659-2.749-.711-5.257-2.123-7.264-4.315-2.188-2.373-3.074-5.052-2.103-8.165.22-.721.385-1.467.656-2.513Zm3.76-.681c-.326 1.146-.511 2.027-.816 2.863-1.287 3.47-.736 5.567 2.493 7.514 1.887 1.147 4.02 1.933 6.118 2.589 3.649 1.146 6.223 3.494 7.549 7.133a28.792 28.792 0 0 1 1.552 6.658c.716 6.649 2.338 8.255 8.536 7.96 2.548-.125 5.097-.505 7.645-.355 4.401.265 8.075 2.122 10.088 6.823.25.586.716 1.066 1.392 2.043.175-1.392.335-2.198.375-3.014.275-6.068-.976-11.84-3.259-17.446-3.59-8.716-10.208-14.388-17.187-19.694a6.234 6.234 0 0 0-2.478-1.117 249.918 249.918 0 0 0-10.338-1.817c-3.875-.581-7.765-1.131-11.67-.14ZM69.576 327.442c5.056.005 8.471-2.885 11.09-6.962 2.186-3.408 3.044-7.271 3.555-11.221.84-6.472.542-12.964.275-19.459-.214-5.251-.243-10.509-.34-15.759-.008-.413-.02-.87.15-1.217.189-.38.601-.911.9-.905.43.016.979.365 1.229.74.274.411.332 1.004.368 1.529.13 1.946.309 3.89.291 5.833-.082 8.223.196 16.426 1.619 24.541.783 4.465 2.34 8.644 5.103 12.321 2.073 2.754 4.709 4.545 8.08 5.37 2.842.694 5.7.913 8.607.779.647-.03 1.319-.102 1.939.032.378.083.826.469.968.826.093.236-.227.873-.489.963-.634.22-.738.544-.757 1.166-.02.824-.521 1.119-1.426 1.138-3.102.061-5.882 1.038-8.167 3.242-2.616 2.525-4.515 5.496-5.194 9.087-.796 4.23-1.544 8.479-2.053 12.751-.613 5.156-.951 10.34-1.411 15.513-.027.291.025.652-.128.857-.217.302-.578.666-.894.682-.316.017-.785-.292-.95-.585-.216-.388-.22-.907-.284-1.373-.735-5.267-1.367-10.551-2.23-15.793-.525-3.195-1.28-6.368-2.15-9.493-1.543-5.536-5.326-8.747-10.904-9.916-2.95-.622-5.897-1.223-8.947-.972a6.657 6.657 0 0 1-1.939-.113c-.336-.072-.747-.403-.874-.715-.225-.559 1.204-2.493 1.834-2.581.526-.071 1.059-.082 1.587-.133.489-.046.956-.106 1.542-.173Zm3.387 1.659.034.293c1.273.241 2.55.472 3.819.728 5.97 1.209 10.145 4.532 12.185 10.363 1.409 4.035 2.19 8.213 2.807 12.425.166 1.13.268 2.272.4 3.411l.458-.007c.1-.788.186-1.574.307-2.359.762-4.956 1.255-9.977 2.37-14.848 1.542-6.715 5.337-11.724 12.085-13.729-2.024-.381-4.233-.74-6.411-1.224-3.419-.759-6.14-2.636-8.343-5.335-2.237-2.74-3.779-5.832-4.847-9.186-.293-.923-.582-1.852-.87-2.782-.398.747-.495 1.474-.583 2.199-.556 4.429-1.52 8.733-3.939 12.571-1.831 2.903-4.195 5.252-7.36 6.697-.684.311-1.41.526-2.112.783ZM275.534 19.576c-1.873-.425-3.73-.916-5.578-1.431-1.597-.501-3.089-1.367-4.195-2.614-1.126-1.216-1.847-2.748-2.203-4.3-.345-1.597-.24-3.109.175-4.716.351-1.662.676-3.329.967-5a1.24 1.24 0 0 0-.846-1.397 1.238 1.238 0 0 0-1.562.806l-.02.07c-.651 2.027-1.272 4.27-1.898 6.142-.651 1.777-1.882 3.3-3.439 4.385a9.026 9.026 0 0 1-5.422 1.527l-6.403-.696-.065-.005a.976.976 0 0 0-.346 1.918c2.088.53 4.306.961 6.308 1.502 1.938.61 3.73 1.872 4.876 3.62 1.177 1.726 1.743 3.869 1.537 5.946-.285 2.088-.801 4.266-1.211 6.388a.744.744 0 0 0 1.432.386l.025-.075 2.112-6.103a10.252 10.252 0 0 1 3.59-4.465c1.607-1.087 3.535-1.752 5.567-1.788 2.073.07 4.321.296 6.478.436l.035.005c.136.01.256-.08.286-.215a.26.26 0 0 0-.2-.326Zm-70.957 326.766a10.223 10.223 0 0 1 1.552-5.517c1.051-1.627 2.563-2.999 4.415-3.83 1.938-.751 4.09-1.421 6.128-2.137l.035-.01a.279.279 0 0 0 .18-.311.27.27 0 0 0-.32-.22c-1.887.345-3.79.621-5.692.871-1.662.165-3.38-.045-4.882-.756-1.511-.676-2.778-1.802-3.709-3.089-.947-1.331-1.442-2.763-1.687-4.405a152.021 152.021 0 0 0-1.072-4.981 1.243 1.243 0 0 0-2.448.405l.005.076c.2 2.122.506 4.425.666 6.392.1 1.888-.436 3.775-1.442 5.387a9.03 9.03 0 0 1-4.391 3.529l-6.162 1.877-.06.021a.975.975 0 0 0 .435 1.897c2.128-.336 4.336-.806 6.393-1.097 2.023-.2 4.166.261 5.908 1.417a9.084 9.084 0 0 1 3.75 4.866m34.05-288.448c1.347.055 2.153-.436 2.563-1.392.481-1.121.376-2.053-.551-2.828a21.245 21.245 0 0 0-2.918-2.028c-.911-.53-2.323-.13-3.099.731-.726.811-.841 1.782-.211 2.758 1.057 1.612 2.639 2.413 4.216 2.759Zm43.49 358.859c.997.045 1.803-.215 2.333-.781 1.607-1.727.962-3.624-.62-4.586-1.402-.851-3.75-.11-4.681 1.227-.576.826-.596 1.597.025 2.398.791 1.036 1.872 1.612 2.943 1.742Zm-151.198-9.101c-1.146-1.206-2.373-1.371-3.705-.64-1.176.651-1.797 2.077-1.437 3.319.566 1.947 2.804 3.154 4.721 2.548.917-.291 1.447-.936 1.502-1.902.081-1.317-.22-2.524-1.081-3.325Zm216.236-219.888c.806-1.082.856-2.023.305-2.904-.651-1.031-1.482-1.472-2.643-1.146a20.81 20.81 0 0 0-3.324 1.261c-.952.451-1.422 1.837-1.147 2.969.255 1.056.991 1.702 2.158 1.732 1.922.045 3.474-.806 4.651-1.912Z"/></g><defs><clipPath id="a"><path fill="#fff" d="M0 0h391v438H0z"/></clipPath></defs></svg>
